icons/plexis/48/pioneers-server.svg

<svg viewBox="0 0 48 48" xmlns="http://www.w3.org/2000/svg" xmlns:xlink="http://www.w3.org/1999/xlink">
  <linearGradient id="a" gradientTransform="matrix(0 -1 1 0 -.0000015 47.999998)" gradientUnits="userSpaceOnUse" x1="1" x2="47">
    <stop offset="0" stop-color="#e4e4e4"/>
    <stop offset="1" stop-color="#eee"/>
  </linearGradient>
  <path d="m47 24c0 22.703-.297 23-23 23-22.703 0-23-.297-23-23 0-22.703.297-23 23-23 22.703 0 23 .297 23 23z" fill="url(#a)"/>
  <path d="m34 18l .004 12-9.996 6-10-5.996-.004-12 9.996-6m10 6" opacity=".1" transform="translate(1 1)"/>
  <path d="m34 18l .004 12-9.996 6-10-5.996-.004-12 9.996-6m10 6" fill="#7f0000"/>
  <path d="m23.25 16v16h1.5v-16m-1.5 0" fill="#ffd7b9"/>
  <path d="m26.5 28.5c0 .828-1.117 1.5-2.5 1.5-1.383 0-2.5-.672-2.5-1.5 0-.828 1.117-1.5 2.5-1.5 1.383 0 2.5.672 2.5 1.5m0 0" fill="#ffd7b9"/>
  <path d="m19.25 31v-14h-1.5v14m1.5 0" fill="#ffd7b9"/>
  <path d="m21 21.5c0 .828-1.117 1.5-2.5 1.5-1.383 0-2.5-.672-2.5-1.5 0-.828 1.117-1.5 2.5-1.5 1.383 0 2.5.672 2.5 1.5m0 0" fill="#ffd7b9"/>
  <path d="m30.25 31v-14h-1.5v14m1.5 0" fill="#ffd7b9"/>
  <path d="m32 21.5c0 .828-1.117 1.5-2.5 1.5-1.383 0-2.5-.672-2.5-1.5 0-.828 1.117-1.5 2.5-1.5 1.383 0 2.5.672 2.5 1.5m0 0" fill="#ffd7b9"/>
</svg>

<svg xmlns="http://www.w3.org/2000/svg" viewBox="0 0 48 48">
 <defs>
  <linearGradient id="linearGradient3764" x1="1" x2="47" gradientUnits="userSpaceOnUse" gradientTransform="matrix(0,-1,1,0,-1.5e-6,47.999998)">
   <stop style="stop-color:#e4e4e4;stop-opacity:1"/>
   <stop offset="1" style="stop-color:#eee;stop-opacity:1"/>
  </linearGradient>
 </defs>
 <g>
  
  
  
 </g>
 <g>
  <path d="m 47,24 C 47,46.703 46.703,47 24,47 1.297,47 1,46.703 1,24 1,1.297 1.297,1 24,1 46.703,1 47,1.297 47,24 z" style="fill:url(#linearGradient3764);fill-opacity:1"/>
 </g>
 <g>
  <g>
   <g transform="translate(1,1)">
    <g style="opacity:0.1">
     <!-- color: #eeeeee -->
     <g>
      <path d="m 34 18 l 0.004 12 l -9.996 6 l -10 -5.996 l -0.004 -12 l 9.996 -6 m 10 6" style="fill:#000;fill-opacity:1;stroke:none;fill-rule:nonzero"/>
     </g>
    </g>
   </g>
  </g>
 </g>
 <g>
  <g>
   <!-- color: #eeeeee -->
   <g>
    <path d="m 34 18 0.004 12 -9.996 6 -10 -5.996 -0.004 -12 9.996 -6 m 10 6" style="fill:#7f0000;fill-opacity:1;stroke:none;fill-rule:nonzero"/>
    <path d="m 23.25 16 0 16 1.5 0 0 -16 m -1.5 0" style="fill:#ffd7b9;fill-opacity:1;stroke:none;fill-rule:nonzero"/>
    <path d="m 26.5 28.5 c 0 0.828 -1.117 1.5 -2.5 1.5 -1.383 0 -2.5 -0.672 -2.5 -1.5 0 -0.828 1.117 -1.5 2.5 -1.5 1.383 0 2.5 0.672 2.5 1.5 m 0 0" style="fill:#ffd7b9;fill-opacity:1;stroke:none;fill-rule:nonzero"/>
    <path d="m 19.25 31 0 -14 -1.5 0 0 14 m 1.5 0" style="fill:#ffd7b9;fill-opacity:1;stroke:none;fill-rule:nonzero"/>
    <path d="M 21,21.5 C 21,22.328 19.883,23 18.5,23 17.117,23 16,22.328 16,21.5 16,20.672 17.117,20 18.5,20 c 1.383,0 2.5,0.672 2.5,1.5 m 0,0" style="fill:#ffd7b9;fill-opacity:1;stroke:none;fill-rule:nonzero"/>
    <path d="m 30.25 31 0 -14 -1.5 0 0 14 m 1.5 0" style="fill:#ffd7b9;fill-opacity:1;stroke:none;fill-rule:nonzero"/>
    <path d="M 32,21.5 C 32,22.328 30.883,23 29.5,23 28.117,23 27,22.328 27,21.5 27,20.672 28.117,20 29.5,20 c 1.383,0 2.5,0.672 2.5,1.5 m 0,0" style="fill:#ffd7b9;fill-opacity:1;stroke:none;fill-rule:nonzero"/>
   </g>
  </g>
 </g>
 <g>
  
 </g>
</svg>
